icons/lines/align-left.svg

<svg xmlns="http://www.w3.org/2000/svg" width="24" height="24" viewBox="0 0 24 24" fill="none" stroke="currentColor" stroke-width="2" stroke-linecap="round" stroke-linejoin="round" >
  <path d="M5.1001 19.25H16.9001C18.4001 19.25 19.0001 18.61 19.0001 17.02V15.98C19.0001 14.39 18.4001 13.75 16.9001 13.75H5.1001"/>
  <path d="M5.1001 5.25H11.9001C13.4001 5.25 14.0001 5.89 14.0001 7.48V8.52C14.0001 10.11 13.4001 10.75 11.9001 10.75H5.1001"/>
  <path d="M5 1.99001V21.99"/>
  </svg>

<svg xmlns="http://www.w3.org/2000/svg" width="24" height="24" viewBox="0 0 24 24" fill="none" stroke="currentColor" stroke-width="2" stroke-linecap="round" stroke-linejoin="round">
  <path d="M5 1.99v20" />
  <path d="M5.1 19.25h11.8c1.5 0 2.1-.64 2.1-2.23v-1.04c0-1.59-.6-2.23-2.1-2.23H5.1" />
  <path d="M5.1 5.25h6.8c1.5 0 2.1.64 2.1 2.23v1.04c0 1.59-.6 2.23-2.1 2.23H5.1" />
</svg>
